X:1
T:He Is Coming Again
T:He Is Coming Again
T:Mabel Johnston Camp
T:Mabel Johnston Camp, 1913
T:Public Domain Courtesy of the Cyber Hymnal™
T:Public Domain Courtesy of the Cyber Hymnal™
C:Mabel Johnston Camp
Z:Public Domain
Z:Courtesy of the Cyber Hymnal™
%%score 1 ( 2 3 )
L:1/8
M:3/4
K:Bb
V:1 treble 
V:2 bass 
V:3 bass 
V:1
 [DF]2 [B,D]2 [EG]2 | [DF]6 | [EA]2 [EG]2 [EF]2 | [DB]2 [DF]4 | [EG]2 [GB]2 [EG]2 | [DF]4 [DF]2 | %6
w: 1.~Lift up your|heads,|pil- grims a-|wear- y,|See day’s ap-|proach now|
w: 2.~Dark was the|night,|sin warred a-|gainst us;|Hea- vy the|load of|
w: 3.~O bless- èd|hope!|O bliss- ful|prom- ise!|Fill- ing our|hearts with|
w: 4.~Ev- en so,|come,|pre- cious Lord|Je- sus;|Cre- a- tion|waits re-|
 [EG]2 [DF]3 [CE] | [B,D]6 | [DF]2 [B,D]2 [EG]2 | [DF]6 | [EA]2 [EG]2 [EF]2 | [DB]2 [DF]3 [DF] | %12
w: crim- son the|sky;|Night sha- dows|flee,|and your Be-|lov- èd, A-|
w: sor- row we|bore;|But now we|see|signs of His|com- ing; Our|
w: rap- ure di-|vine;|O day of|days!|Hail Thy ap-|pear- ing! Thy|
w: demp- tion to|see;|Caught up in|clouds,|soon we shall|meet Thee; O|
 [EG]2 [EB]2 [EG]2 | [DF]2 [DB]2 [FB]2 | [=Ed]2 [EG]2 [Ec]2 | [Ec]4 ||"^Refrain" [EF][EF] | %17
w: wait- ed with|long- ing, at|last draw- th|nigh.||
w: hearts glow with-|in us, joy’s|cup run- neth|o’er!||
w: tran- scend- ent|glor- y for-|ev- er shall|shine.||
w: bless- èd as-|sur- ance, for-|ev- er with|Thee!||
 [DB]2 [DA]3 [DG] | [EA]4 [EF][EF] | [Ec]2 [DB]3 [CA] | [DB]4 [DF]2 | [Fd]2 [Fc]2 [FB]2 | %22
w: |||||
w: |||||
w: |||||
w: |||||
 [Gc]2 [EG]3 [EG] | [=Ec]2 [EG]2 [Ed]2 | [Ec]4 [EF][EF] | [DB]2 [DA]3 [DG] | [EA]4 [EF][EF] | %27
w: |||||
w: |||||
w: |||||
w: |||||
 [Ec]2 [DB]3 [CA] | [DB]4 [DF]2 | [Fd]2 [Fc]2 [FB]2 | [GB]2 [Ge]4 [GB][Gc] | [Fd]2 [Fd]3 [Ec] | %32
w: |||||
w: |||||
w: |||||
w: |||||
 [DB]4 |] %33
w: |
w: |
w: |
w: |
V:2
 [B,,B,]2 [B,,F,]2 [B,,B,]2 | [B,,B,]6 | [F,C]2 [F,B,]2 [F,A,]2 | [B,,B,]2 [B,,B,]4 | %4
w: ~ ~ ~|~|~ ~ ~|~ ~|
 [E,B,]2 [E,E]2 [E,B,]2 | [F,B,]4 [F,B,]2 | [F,A,]2 [F,B,]3 F, | [B,,F,]6 | %8
w: ~ ~ ~|~ ~|~ ~ ~|~|
 [B,,B,]2 [B,,F,]2 [B,,B,]2 | [B,,B,]6 | [F,C]2 [F,B,]2 [F,A,]2 | [B,,B,]2 [B,,B,]3 [B,,B,] | %12
w: ~ ~ ~|~|~ ~ ~|~ ~ ~|
 [E,B,]2 [E,G,]2 [E,B,]2 | [B,,B,]2 [B,,F,]2 [D,B,]2 | [C,B,]2 [C,B,]2 [C,B,]2 | [F,A,]4 || %16
w: ~ ~ ~|~ ~ ~|~ ~ ~|~|
 [F,A,][F,A,] | [B,,B,]2 [B,,B,]3 [B,,B,] | [F,C]4 [F,A,][F,A,] | [F,A,]2 [F,B,]3 F, | %20
w: He is|com- ing a-|gain, He is|com- ing a-|
 [B,,F,]4 [B,,B,]2 | [B,,B,]2 [C,A,]2 [D,B,]2 | [E,B,]2 [E,B,]3 [E,B,] | [C,B,]2 [C,B,]2 [C,B,]2 | %24
w: gain, The|ve- ry same|Je- sus, re-|ject- ed of|
 [F,A,]4 [F,A,][F,A,] | [B,,B,]2 [B,,B,]3 [B,,B,] | [F,C]4 [F,A,][F,A,] | [F,A,]2 [F,B,]3 F, | %28
w: men; He is|com- ing a-|gain, He is|com- ing a-|
 [B,,F,]4 [B,,B,]2 | [B,,B,]2 [C,A,]2 [D,B,]2 | [E,E]2 [E,B,]4 [E,E][E,E] | %31
w: gain, With|power and great|glor- y, He is|
 [F,B,]2 [F,B,]3 [F,A,] | [B,,B,]4 |] %33
w: com- ing a-|gain!|
V:3
 x6 | x6 | x6 | x6 | x6 | x6 | x5 F, | x6 | x6 | x6 | x6 | x6 | x6 | x6 | x6 | x4 || x2 | x6 | x6 | %19
 x5 F, | x6 | x6 | x6 | x6 | x6 | x6 | x6 | x5 F, | x6 | x6 | x8 | x6 | x4 |] %33

